assets/icons/qvision/business_center.svg

<svg width="24" height="24" viewBox="0 0 24 24" fill="none" xmlns="http://www.w3.org/2000/svg">
<g clip-path="url(#clip0_147_6122)">
<path d="M10 16V15H3.01L3 19C3 20.11 3.89 21 5 21H19C20.11 21 21 20.11 21 19V15H14V16H10ZM20 7H15.99V5L13.99 3H9.99L7.99 5V7H4C2.9 7 2 7.9 2 9V12C2 13.11 2.89 14 4 14H10V12H14V14H20C21.1 14 22 13.1 22 12V9C22 7.9 21.1 7 20 7ZM14 7H10V5H14V7Z" fill="#323232"/>
</g>
<defs>
<clipPath id="clip0_147_6122">
<rect width="24" height="24" fill="white"/>
</clipPath>
</defs>
</svg>

<svg xmlns="http://www.w3.org/2000/svg" height="24" viewBox="0 0 24 24" width="24"><path d="M0 0h24v24H0zm10 5h4v2h-4zm0 0h4v2h-4z" fill="none"/><path d="M10 16v-1H3.01L3 19c0 1.11.89 2 2 2h14c1.11 0 2-.89 2-2v-4h-7v1h-4zm10-9h-4.01V5l-2-2h-4l-2 2v2H4c-1.1 0-2 .9-2 2v3c0 1.11.89 2 2 2h6v-2h4v2h6c1.1 0 2-.9 2-2V9c0-1.1-.9-2-2-2zm-6 0h-4V5h4v2z"/></svg>
